X:53
T:Friarepolska
R:Polska
O:Gotland
B:Bagge nr 53
Z:Erik Ronström 2015
M:3/4
L:1/16
K:G
D2|:(GA)Bc (de)fg d4|.d2(Bd) .c2(Ac) B4|(g3d)B3cA3c|1 (BA)GF G2GD (CB,)A,G,:|
[2 (BA)GF G4 G,4|:.b2.g2.b2.g2.b2.g2|.a2.f2.a2.f2.a2.f2|.g4 .d8|+open+g4 +open+d8|g2fg (ag)fe d4|
(GA)Bc defg d4|.d2(Bd) .c2(Ac) B4|(g3d)B3cA3c|(BA)GF G4 G,4:|

